; generated by SuperSlicer 2.3.55 on 2020-12-04 at 03:31:01 UTC

; 

; external perimeters extrusion width = 0.45mm
; perimeters extrusion width = 0.45mm
; infill extrusion width = 0.45mm
; solid infill extrusion width = 0.45mm
; top infill extrusion width = 0.40mm
; support material extrusion width = 0.35mm
; first layer extrusion width = 0.42mm

; object:{"name":"основание насоса","id":"основание насоса.STL id:0 copy 0","object_center":[106.842815,102.320612,0.000000],"boundingbox_center":[106.842815,102.320612,11.500000],"boundingbox_size":[70.500000,35.000000,23.000000]}
; plater:{"center":[106.842815,102.320612,0.000000],"boundingbox_center":[106.842815,102.320612,11.500000],"boundingbox_size":[70.500000,35.000000,23.000000]}

M73 P0 R82
;TYPE:Custom
; custom gcode: start_gcode
M115 U3.1.0 ; tell printer latest fw version
M83  ; extruder relative mode
M77
M75
M204 S1300 T1000 ; ENDER3 firmware may only supports the old M204 format
M104 S240 ; set extruder temp
M140 S80 ; set bed temp
M190 S80 ; wait for bed temp
M109 S240 ; wait for extruder temp
G28 W ; home all
;
G90 ;absolute positioning
G0 Z10 X5 Y210 F6000 ; home at corner
G91; relative pos
G1 E30 F200; extrude. clear nozzle
G90 ;absolute positioning
G0 Z0.1 X10 Y180 F2000 ; diagonal lift nozzle to bed
G91; relative pos
G1 Y-100 E10 F1000; extrude line
G1 X50 F8000; wipe
G90 ;absolute positioning
; custom gcode end: start_gcode
G21 ; set units to millimeters
G90 ; use absolute coordinates
M82 ; use absolute distances for extrusion
G92 E0
; custom gcode: start_filament_gcode
; Filament gcode
; custom gcode end: start_filament_gcode
;LAYER_CHANGE
;Z:0.24
;HEIGHT:0.24
G1 E-4.50000 F3600.00000
G1 Z0.240000 F6000.000
; custom gcode: layer_gcode
;AFTER_LAYER_CHANGE
;0.24
; custom gcode end: layer_gcode

; printing object основание насоса.STL id:0 copy 0
G92 E0
G1 X76.115 Y95.585
G1 E4.50000 F3600.00000
;TYPE:Perimeter
G1 F2400.000
M204 P1300
G1 X77.011 Y94.946 E4.54047
G1 X77.981 Y94.426 E4.58094
G1 X79.009 Y94.032 E4.62141
G1 X80.119 Y93.762 E4.66342
G1 X121.745 Y86.389 E6.21777
G1 X122.999 Y86.216 E6.26433
G1 X124.604 Y86.138 E6.32338
G1 X126.182 Y86.216 E6.38148
G1 X127.750 Y86.449 E6.43977
G1 X129.290 Y86.835 E6.49816
G1 X130.786 Y87.370 E6.55655
G1 X132.221 Y88.049 E6.61495
G1 X133.584 Y88.865 E6.67334
G1 X134.859 Y89.811 E6.73173
G1 X136.036 Y90.878 E6.79013
G1 X137.102 Y92.054 E6.84852
G1 X138.048 Y93.330 E6.90691
G1 X138.865 Y94.692 E6.96530
G1 X139.544 Y96.128 E7.02370
G1 X140.079 Y97.623 E7.08209
G1 X140.465 Y99.163 E7.14048
G1 X140.698 Y100.734 E7.19888
G1 X140.776 Y102.321 E7.25727
G1 X140.698 Y103.907 E7.31566
G1 X140.465 Y105.478 E7.37406
G1 X140.079 Y107.018 E7.43245
G1 X139.544 Y108.514 E7.49084
G1 X138.865 Y109.949 E7.54923
G1 X138.048 Y111.311 E7.60763
G1 X137.102 Y112.587 E7.66602
G1 X136.036 Y113.764 E7.72441
G1 X134.859 Y114.830 E7.78281
G1 X133.584 Y115.776 E7.84120
G1 X132.221 Y116.593 E7.89959
G1 X130.786 Y117.272 E7.95798
G1 X129.292 Y117.806 E8.01632
G1 X127.711 Y118.199 E8.07621
G1 X126.179 Y118.426 E8.13316
G1 X124.604 Y118.503 E8.19115
G1 X122.997 Y118.425 E8.25031
G1 X121.745 Y118.253 E8.29677
G1 X80.119 Y110.879 E9.85112
G1 X79.009 Y110.609 E9.89312
G1 X77.981 Y110.216 E9.93359
G1 X77.011 Y109.695 E9.97406
G1 X76.115 Y109.056 E10.01453
G1 X75.307 Y108.309 E10.05500
G1 X74.600 Y107.466 E10.09547
G1 X74.005 Y106.540 E10.13594
G1 X73.532 Y105.546 E10.17641
G1 X73.189 Y104.500 E10.21688
G1 X72.981 Y103.419 E10.25735
G1 X72.911 Y102.321 E10.29782
G1 X72.981 Y101.222 E10.33829
G1 X73.189 Y100.141 E10.37876
G1 X73.532 Y99.096 E10.41923
G1 X74.005 Y98.102 E10.45970
G1 X74.600 Y97.176 E10.50017
G1 X75.307 Y96.332 E10.54064
G1 X76.071 Y95.626 E10.57890
G1 X75.821 Y95.355 F6000.000
G1 F2400.000
G1 X76.816 Y94.632 E10.62414
G1 X77.828 Y94.090 E10.66633
G1 X78.899 Y93.680 E10.70852
G1 X80.043 Y93.401 E10.75182
G1 X121.688 Y86.025 E12.30686
G1 X122.965 Y85.849 E12.35428
G1 X124.604 Y85.769 E12.41459
G1 X126.218 Y85.849 E12.47402
G1 X127.822 Y86.087 E12.53364
G1 X129.398 Y86.481 E12.59336
G1 X130.927 Y87.029 E12.65309
G1 X132.395 Y87.723 E12.71281
G1 X133.789 Y88.558 E12.77253
G1 X135.093 Y89.526 E12.83226
G1 X136.297 Y90.617 E12.89198
G1 X137.388 Y91.820 E12.95171
G1 X138.355 Y93.125 E13.01143
G1 X139.190 Y94.518 E13.07116
G1 X139.885 Y95.986 E13.13088
G1 X140.432 Y97.516 E13.19060
G1 X140.827 Y99.092 E13.25033
G1 X141.065 Y100.698 E13.31005
G1 X141.145 Y102.321 E13.36978
G1 X141.065 Y103.943 E13.42950
G1 X140.827 Y105.550 E13.48922
G1 X140.432 Y107.125 E13.54895
G1 X139.885 Y108.655 E13.60867
G1 X139.190 Y110.123 E13.66840
G1 X138.355 Y111.516 E13.72812
G1 X137.388 Y112.821 E13.78784
G1 X136.297 Y114.025 E13.84757
G1 X135.093 Y115.115 E13.90729
G1 X133.789 Y116.083 E13.96702
G1 X132.395 Y116.918 E14.02674
G1 X130.927 Y117.613 E14.08647
G1 X129.399 Y118.159 E14.14615
G1 X127.783 Y118.561 E14.20737
G1 X126.215 Y118.793 E14.26563
G1 X124.604 Y118.872 E14.32495
G1 X122.962 Y118.792 E14.38538
G1 X121.688 Y118.617 E14.43269
G1 X80.043 Y111.240 E15.98773
G1 X78.899 Y110.962 E16.03103
G1 X77.828 Y110.551 E16.07322
G1 X76.816 Y110.009 E16.11541
G1 X75.882 Y109.343 E16.15760
G1 X75.040 Y108.564 E16.19979
G1 X74.302 Y107.684 E16.24198
G1 X73.682 Y106.719 E16.28417
G1 X73.189 Y105.683 E16.32636
G1 X72.831 Y104.593 E16.36855
G1 X72.614 Y103.466 E16.41074
G1 X72.542 Y102.321 E16.45294
G1 X72.614 Y101.175 E16.49513
G1 X72.831 Y100.049 E16.53732
M73 P0 R81
G1 X73.189 Y98.958 E16.57951
G1 X73.682 Y97.922 E16.62170
G1 X74.302 Y96.957 E16.66389
G1 X75.040 Y96.077 E16.70608
G1 X75.777 Y95.396 E16.74300
G1 X75.527 Y95.125 F6000.000
G1 F2400.000
G1 X75.649 Y95.012 E16.74913
G1 X76.622 Y94.319 E16.79304
G1 X77.674 Y93.754 E16.83696
G1 X78.789 Y93.327 E16.88087
G1 X79.968 Y93.040 E16.92546
G1 X121.630 Y85.660 E18.48119
G1 X122.931 Y85.481 E18.52947
G1 X124.604 Y85.400 E18.59104
G1 X126.254 Y85.482 E18.65180
G1 X127.894 Y85.725 E18.71275
G1 X129.505 Y86.128 E18.77380
G1 X131.068 Y86.688 E18.83486
G1 X132.569 Y87.398 E18.89591
G1 X133.994 Y88.251 E18.95697
G1 X135.327 Y89.241 E19.01802
G1 X136.558 Y90.356 E19.07908
G1 X137.673 Y91.586 E19.14013
G1 X138.662 Y92.920 E19.20119
G1 X139.516 Y94.344 E19.26225
G1 X140.226 Y95.845 E19.32330
G1 X140.785 Y97.409 E19.38436
G1 X141.188 Y99.020 E19.44541
G1 X141.432 Y100.662 E19.50647
G1 X141.514 Y102.321 E19.56752
G1 X141.432 Y103.979 E19.62858
G1 X141.188 Y105.622 E19.68963
G1 X140.785 Y107.232 E19.75069
G1 X140.226 Y108.796 E19.81174
G1 X139.516 Y110.297 E19.87280
G1 X138.662 Y111.721 E19.93386
G1 X137.673 Y113.055 E19.99491
G1 X136.558 Y114.285 E20.05597
G1 X135.327 Y115.401 E20.11702
G1 X133.994 Y116.390 E20.17808
G1 X132.569 Y117.243 E20.23913
G1 X131.068 Y117.953 E20.30019
G1 X129.505 Y118.513 E20.36122
G1 X127.854 Y118.922 E20.42377
G1 X126.251 Y119.160 E20.48335
G1 X124.604 Y119.241 E20.54399
G1 X122.928 Y119.159 E20.60568
G1 X121.630 Y118.981 E20.65386
G1 X79.968 Y111.601 E22.20958
G1 X78.789 Y111.314 E22.25417
G1 X77.674 Y110.887 E22.29808
G1 X76.622 Y110.322 E22.34199
G1 X75.649 Y109.629 E22.38591
G1 X74.772 Y108.818 E22.42982
G1 X74.005 Y107.903 E22.47373
G1 X73.360 Y106.898 E22.51764
G1 X72.847 Y105.820 E22.56155
G1 X72.474 Y104.685 E22.60547
G1 X72.248 Y103.512 E22.64938
G1 X72.172 Y102.321 E22.69329
G1 X72.248 Y101.129 E22.73720
G1 X72.474 Y99.956 E22.78112
G1 X72.847 Y98.821 E22.82503
G1 X73.360 Y97.743 E22.86894
G1 X74.005 Y96.738 E22.91285
G1 X74.772 Y95.823 E22.95676
G1 X75.483 Y95.166 E22.99234
G1 X75.232 Y94.895 F6000.000
;TYPE:External perimeter
G1 F1680.000
G1 X75.416 Y94.726 E23.00154
G1 X76.427 Y94.005 E23.04717
G1 X77.520 Y93.418 E23.09280
G1 X78.679 Y92.975 E23.13844
G1 X79.892 Y92.680 E23.18431
G1 X121.573 Y85.296 E24.74074
G1 X122.897 Y85.114 E24.78987
G1 X124.604 Y85.031 E24.85271
G1 X126.290 Y85.114 E24.91480
G1 X127.966 Y85.363 E24.97707
G1 X129.612 Y85.775 E25.03946
G1 X131.209 Y86.347 E25.10185
G1 X132.743 Y87.072 E25.16423
G1 X134.198 Y87.945 E25.22662
G1 X135.561 Y88.955 E25.28901
G1 X136.819 Y90.095 E25.35139
G1 X137.958 Y91.352 E25.41378
G1 X138.969 Y92.715 E25.47617
G1 X139.841 Y94.170 E25.53855
G1 X140.566 Y95.704 E25.60094
G1 X141.138 Y97.302 E25.66333
G1 X141.550 Y98.948 E25.72571
G1 X141.799 Y100.626 E25.78810
G1 X141.883 Y102.321 E25.85049
G1 X141.799 Y104.015 E25.91287
G1 X141.550 Y105.694 E25.97526
G1 X141.138 Y107.340 E26.03765
G1 X140.566 Y108.937 E26.10003
G1 X139.841 Y110.471 E26.16242
G1 X138.969 Y111.926 E26.22481
G1 X137.958 Y113.289 E26.28719
G1 X136.819 Y114.546 E26.34958
G1 X135.561 Y115.686 E26.41197
G1 X134.198 Y116.697 E26.47435
G1 X132.743 Y117.569 E26.53674
G1 X131.209 Y118.294 E26.59913
G1 X129.612 Y118.866 E26.66150
G1 X127.926 Y119.284 E26.72539
G1 X126.287 Y119.527 E26.78628
G1 X124.604 Y119.610 E26.84825
G1 X122.894 Y119.527 E26.91121
G1 X121.573 Y119.345 E26.96024
G1 X79.892 Y111.962 E28.51665
G1 X78.679 Y111.667 E28.56253
G1 X77.520 Y111.223 E28.60816
G1 X76.427 Y110.636 E28.65380
G1 X75.416 Y109.916 E28.69943
G1 X74.505 Y109.073 E28.74506
G1 X73.707 Y108.122 E28.79070
G1 X73.037 Y107.078 E28.83633
G1 X72.504 Y105.957 E28.88196
G1 X72.117 Y104.778 E28.92760
G1 X71.882 Y103.559 E28.97323
G1 X71.803 Y102.321 E29.01886
G1 X71.882 Y101.082 E29.06450
G1 X72.117 Y99.863 E29.11013
G1 X72.504 Y98.684 E29.15576
G1 X73.037 Y97.563 E29.20140
G1 X73.707 Y96.519 E29.24703
G1 X74.505 Y95.568 E29.29266
G1 X75.188 Y94.936 E29.32689
G1 X75.471 Y94.970 F6000.000
G92 E0
G1 E-4.50000 F3600.00000
G1 X132.726 Y88.480 F6000.000
G1 E0.00000 F3600.00000
;TYPE:Solid infill
G1 F3456.000
G1 X138.434 Y94.187 E0.29679
G92 E0
G1 E-4.50000 F3600.00000
G1 X139.035 Y95.310 F6000.000
G1 E0.00000 F3600.00000
G1 F3456.000
G1 X131.952 Y88.227 E0.36831
G1 X130.963 Y87.759 E0.40853
G1 X139.154 Y95.951 E0.83448
G1 X139.496 Y96.813 E0.86857
G1 X130.101 Y87.418 E1.35709
G1 X129.289 Y87.128 E1.38878
G1 X139.786 Y97.624 E1.93459
G1 X139.971 Y98.331 E1.96146
G1 X128.583 Y86.942 E2.55366
G1 X127.887 Y86.768 E2.58001
G1 X140.146 Y99.026 E3.21742
G1 X140.259 Y99.661 E3.24114
G1 X127.252 Y86.654 E3.91748
G1 X126.640 Y86.563 E3.94022
G1 X140.350 Y100.273 E4.65310
G1 X140.428 Y100.872 E4.67531
G1 X126.042 Y86.486 E5.42338
G1 X125.493 Y86.459 E5.44357
G1 X140.455 Y101.420 E6.22154
G1 X140.482 Y101.968 E6.24172
G1 X124.945 Y86.431 E7.04961
G1 X124.416 Y86.424 E7.06905
G1 X140.490 Y102.498 E7.90489
G1 X140.466 Y102.995 E7.92318
G1 X123.919 Y86.448 E8.78358
G1 X123.422 Y86.472 E8.80188
G1 X140.442 Y103.491 E9.68685
G1 X140.408 Y103.979 E9.70481
G1 X122.933 Y86.504 E10.61347
G1 X122.475 Y86.567 E10.63047
G1 X140.340 Y104.432 E11.55944
G1 X140.273 Y104.886 E11.57631
G1 X122.017 Y86.630 E12.52561
G1 X121.567 Y86.701 E12.54237
G1 X140.206 Y105.340 E13.51159
G1 X140.108 Y105.764 E13.52757
G1 X121.124 Y86.779 E14.51473
G1 X120.681 Y86.858 E14.53126
G1 X140.004 Y106.180 E15.53602
G1 X139.900 Y106.597 E15.55181
G1 X120.238 Y86.936 E16.57416
G1 X119.796 Y87.015 E16.59069
G1 X139.789 Y107.008 E17.63032
G1 X139.652 Y107.392 E17.64531
G1 X119.353 Y87.093 E18.70081
G1 X118.910 Y87.171 E18.71735
G1 X139.514 Y107.775 E19.78873
G1 X139.377 Y108.159 E19.80372
G1 X118.468 Y87.250 E20.89099
M73 P1 R81
G1 X118.025 Y87.328 E20.90752
G1 X139.229 Y108.532 E22.01011
G1 X139.062 Y108.886 E22.02450
G1 X117.582 Y87.407 E23.14142
G1 X117.140 Y87.485 E23.15795
G1 X138.895 Y109.240 E24.28918
G1 X138.727 Y109.594 E24.30357
G1 X116.697 Y87.563 E25.44913
G1 X116.254 Y87.642 E25.46566
G1 X138.550 Y109.937 E26.62500
G1 X138.354 Y110.263 E26.63897
G1 X115.811 Y87.720 E27.81118
G1 X115.369 Y87.799 E27.82771
G1 X138.159 Y110.589 E29.01278
G1 X137.964 Y110.915 E29.02675
G1 X114.926 Y87.877 E30.22469
G1 X114.483 Y87.956 E30.24122
G1 X137.762 Y111.234 E31.45167
G1 X137.540 Y111.533 E31.46536
G1 X114.041 Y88.034 E32.68730
G1 X113.598 Y88.112 E32.70383
G1 X137.318 Y111.832 E33.93724
G1 X137.096 Y112.132 E33.95094
G1 X113.155 Y88.191 E35.19583
G1 X112.712 Y88.269 E35.21236
G1 X136.872 Y112.429 E36.46865
G1 X136.625 Y112.703 E36.48222
G1 X112.270 Y88.348 E37.74864
G1 X111.827 Y88.426 E37.76517
G1 X136.377 Y112.976 E39.04173
G1 X136.129 Y113.249 E39.05530
G1 X111.384 Y88.504 E40.34200
G1 X110.942 Y88.583 E40.35853
G1 X135.881 Y113.523 E41.65536
G1 X135.612 Y113.775 E41.66892
G1 X110.499 Y88.661 E42.97478
G1 X110.056 Y88.740 E42.99131
G1 X135.339 Y114.022 E44.30598
G1 X135.065 Y114.270 E44.31954
G1 X109.613 Y88.818 E45.64302
G1 X109.171 Y88.897 E45.65955
G1 X134.792 Y114.518 E46.99183
G1 X134.503 Y114.750 E47.00546
G1 X108.728 Y88.975 E48.34573
G1 X108.285 Y89.053 E48.36226
G1 X134.204 Y114.972 E49.71000
G1 X133.905 Y115.194 E49.72370
G1 X107.843 Y89.132 E51.07889
G1 X107.400 Y89.210 E51.09542
G1 X133.605 Y115.416 E52.45808
G1 X133.295 Y115.627 E52.47188
G1 X106.957 Y89.289 E53.84142
G1 X106.514 Y89.367 E53.85796
G1 X132.969 Y115.822 E55.23358
G1 X132.644 Y116.017 E55.24755
G1 X106.072 Y89.446 E56.62925
G1 X105.629 Y89.524 E56.64578
G1 X132.318 Y116.213 E58.03357
G1 X131.983 Y116.400 E58.04765
G1 X105.186 Y89.602 E59.44106
G1 X104.744 Y89.681 E59.45759
G1 X131.630 Y116.567 E60.85564
G1 X131.276 Y116.734 E60.87003
G1 X104.301 Y89.759 E62.27269
G1 X103.858 Y89.838 E62.28922
G1 X130.922 Y116.902 E63.69651
G1 X130.559 Y117.059 E63.71107
G1 X103.415 Y89.916 E65.12249
G1 X102.973 Y89.994 E65.13902
G1 X130.175 Y117.197 E66.55350
G1 X129.791 Y117.334 E66.56849
G1 X102.530 Y90.073 E67.98603
G1 X102.087 Y90.151 E68.00257
G1 X129.407 Y117.471 E69.42317
G1 X129.007 Y117.592 E69.43855
G1 X101.645 Y90.230 E70.86136
G1 X101.202 Y90.308 E70.87789
G1 X128.590 Y117.696 E72.30201
G1 X128.172 Y117.799 E72.31783
G1 X100.759 Y90.387 E73.74326
G1 X100.316 Y90.465 E73.75979
G1 X127.755 Y117.903 E75.18654
G1 X127.657 Y117.927 E75.19022
G1 X127.309 Y117.979 E75.20316
G1 X99.874 Y90.543 E76.62977
G1 X99.431 Y90.622 E76.64630
G1 X126.855 Y118.046 E78.07232
G1 X126.401 Y118.113 E78.08919
G1 X98.988 Y90.700 E79.51464
G1 X98.546 Y90.779 E79.53117
G1 X125.928 Y118.161 E80.95503
G1 X125.432 Y118.186 E80.97331
G1 X98.103 Y90.857 E82.39437
G1 X97.660 Y90.935 E82.41091
G1 X124.935 Y118.210 E83.82916
G1 X124.421 Y118.218 E83.84805
G1 X97.217 Y91.014 E85.26262
G1 X96.775 Y91.092 E85.27915
G1 X123.874 Y118.191 E86.68826
G1 X123.326 Y118.164 E86.70842
G1 X96.332 Y91.171 E88.11206
G1 X95.889 Y91.249 E88.12859
G1 X122.753 Y118.112 E89.52544
G1 X122.148 Y118.029 E89.54787
G1 X95.447 Y91.328 E90.93632
G1 X95.004 Y91.406 E90.95285
G1 X121.532 Y117.934 E92.33229
G1 X120.899 Y117.822 E92.35593
G1 X94.561 Y91.484 E93.72546
G1 X94.119 Y91.563 E93.74199
G1 X120.266 Y117.710 E95.10160
G1 X119.632 Y117.598 E95.12525
G1 X93.676 Y91.641 E96.47495
G1 X93.233 Y91.720 E96.49149
G1 X118.999 Y117.486 E97.83128
G1 X118.366 Y117.373 E97.85493
G1 X92.790 Y91.798 E99.18481
M73 P1 R80
G1 X92.348 Y91.877 E99.20134
G1 X117.732 Y117.261 E100.52131
G1 X117.099 Y117.149 E100.54496
G1 X91.905 Y91.955 E101.85502
G1 X91.462 Y92.033 E101.87155
G1 X116.466 Y117.037 E103.17169
G1 X115.832 Y116.925 E103.19534
G1 X91.020 Y92.112 E104.48558
G1 X90.577 Y92.190 E104.50211
G1 X115.199 Y116.812 E105.78244
G1 X114.566 Y116.700 E105.80609
G1 X90.134 Y92.269 E107.07650
G1 X89.691 Y92.347 E107.09303
G1 X113.932 Y116.588 E108.35354
G1 X113.299 Y116.476 E108.37718
G1 X89.249 Y92.425 E109.62778
G1 X88.806 Y92.504 E109.64431
G1 X112.666 Y116.364 E110.88499
G1 X112.033 Y116.252 E110.90864
G1 X88.363 Y92.582 E112.13941
G1 X87.921 Y92.661 E112.15594
G1 X111.399 Y116.139 E113.37680
G1 X110.766 Y116.027 E113.40045
G1 X87.478 Y92.739 E114.61140
G1 X87.035 Y92.818 E114.62793
G1 X110.133 Y115.915 E115.82897
G1 X109.499 Y115.803 E115.85262
G1 X86.592 Y92.896 E117.04375
G1 X86.150 Y92.974 E117.06028
G1 X108.866 Y115.691 E118.24149
G1 X108.233 Y115.578 E118.26514
G1 X85.707 Y93.053 E119.43645
G1 X85.264 Y93.131 E119.45298
G1 X107.599 Y115.466 E120.61437
G1 X106.966 Y115.354 E120.63802
G1 X84.822 Y93.210 E121.78950
M73 P2 R80
G1 X84.379 Y93.288 E121.80604
G1 X106.333 Y115.242 E122.94761
G1 X105.699 Y115.130 E122.97126
G1 X83.936 Y93.366 E124.10292
G1 X83.493 Y93.445 E124.11945
G1 X105.066 Y115.018 E125.24120
G1 X104.433 Y114.905 E125.26485
